public/icons/phone-simple.svg

<svg xmlns="http://www.w3.org/2000/svg" width="24" height="24"><path fill="#FFF" stroke="#FFF" stroke-width="1.5" d="m18.4 16.5-1.9 1.9c-.6.6-2 .4-2 .4-6.4-1.1-10.9-5.6-12-12 0 0-.2-1.4.4-2l1.9-1.9c.6-.6 1.6-.6 2.2 0l2 2c.6.6.6 1.6 0 2.2l-.9.9v.1c1.1 2.6 3.5 5 6.1 6.1h.1l.9-.9c.6-.6 1.6-.6 2.2 0l2 2c.6.6.6 1.6-1 1.2Z"/></svg>

<?xml version="1.0" encoding="UTF-8"?>
<svg width="24px" height="24px" viewBox="0 0 24 24" version="1.1" xmlns="http://www.w3.org/2000/svg">
    <title>Phone</title>
    <g id="Phone" stroke="none" stroke-width="1" fill="none" fill-rule="evenodd">
        <path d="M18.4,16.5 L16.5,18.4 C15.9,19 14.5,18.8 14.5,18.8 C8.1,17.7 3.6,13.2 2.5,6.8 C2.5,6.8 2.3,5.4 2.9,4.8 L4.8,2.9 C5.4,2.3 6.4,2.3 7,2.9 L9,4.9 C9.6,5.5 9.6,6.5 9,7.1 L8.1,8 C8.1,8 8.1,8.1 8.1,8.1 C9.2,10.7 11.6,13.1 14.2,14.2 C14.3,14.2 14.3,14.2 14.3,14.2 L15.2,13.3 C15.8,12.7 16.8,12.7 17.4,13.3 L19.4,15.3 C20,15.9 20,16.9 18.4,16.5 Z" id="Path" stroke="#FFFFFF" stroke-width="1.5" fill="#FFFFFF" fill-rule="nonzero"></path>
    </g>
</svg>
